X:64
T:Longdans / Waltz
R:Longdans
R:Waltz
O:Sweden
M:3/4
K:Bm
A2|d4 A2|d4 fe|fd cB cA|B4 ::\
D2|GF GA Bc|d2 cB cA|G4F2|E4:|
